X:120
T: Tim Sullivan's
S: "Johnny O'Leary of Sliabh Luachra" (#14)
Z: B.Black
L: 1/8
M: 4/4
R: hornpipe
K: A
af|e2 A2 c2 A2|cecB cecB|B2 ce f4|B2 ce f2 af|
e2 A2 c2 A2|(3cde cB cecB|B2 ce f2 ec|1 B2 A2 A2 :|2\
(3BcB A2 A4||
e2 a2 g2 f2|e2 c2 (3cdc B2|B2 ce f2 f2|B2 ce f4|
e2 a2 g2 f2|e2 c2 (3cdc B2|B2 ce f2 ec|B2 A2 A4 :|
